assets/fc/fc-organization.svg

<svg xmlns="http://www.w3.org/2000/svg" width="100%" height="100%" viewBox="0 0 48 48"><path fill="#90CAF9" d="M42 42H6V10c0-2.2 1.8-4 4-4h28c2.2 0 4 1.8 4 4v32z"/><path fill="#64B5F6" d="M6 42h36v2H6z"/><g fill="#1565C0"><path d="M31 27h6v5h-6zM21 27h6v5h-6zM11 27h6v5h-6zM31 35h6v5h-6zM11 35h6v5h-6zM31 19h6v5h-6zM21 19h6v5h-6zM11 19h6v5h-6zM31 11h6v5h-6zM21 11h6v5h-6zM11 11h6v5h-6zM21 35h6v9h-6z"/></g></svg>

<svg xmlns="http://www.w3.org/2000/svg" width="100%" height="100%" viewBox="0 0 48 48"><path fill="#90CAF9" d="M42,42H6V10c0-2.2,1.8-4,4-4h28c2.2,0,4,1.8,4,4V42z"/><path fill="#64B5F6" d="M6 42H42V44H6z"/><g fill="#1565C0"><path d="M31 27H37V32H31zM21 27H27V32H21zM11 27H17V32H11zM31 35H37V40H31zM11 35H17V40H11zM31 19H37V24H31zM21 19H27V24H21zM11 19H17V24H11zM31 11H37V16H31zM21 11H27V16H21zM11 11H17V16H11zM21 35H27V44H21z"/></g></svg>
